X:1
T:Title
%%score { 1 | ( 2 3 ) }
L:1/8
M:6/8
K:Eb
V:1 treble nm="Grand Piano"
V:2 bass 
V:3 bass 
V:1
 z3 z2[Q:1/4=100] [EG] | [GB]>[Ac][GB] G2 E | E D2- D2 E | [DF]>[EG][FA] [GB]2 [FA] | %4
[M:5/8] [EG]-[EG]- [EG]3 |[M:1/8] [EG] |[M:3/4] [GB]>[Ac] [GB] G2 E | ED- D3 [DFB] | %8
 [CF=A]2 [CFA][CEA] [DB][Ec] |[M:5/8] [DB]-[DB]- [DB]3 |[M:1/8] B | %11
[M:3/4] [Ge]2 [GB][EG] [FA][GB] | [Ac]3 [GB]2 [B,EG] | [DFB]2 [DFA][FA] [EG][DF] | %14
[M:5/8] [EG]-[EG]- [EG]3 |[M:1/8] [GB] |[M:3/4] [Ge]2 [GB][EG] [FA][GB] |[M:7/8] c3 e3 c | %18
[M:3/4] [EGB]2 [G,E] [B,DG]2 [A,DF] |[M:5/8] [G,B,E]-[G,B,E]- [G,B,E]3 |] %20
V:2
 z3 z2 [E,B,] | [E,E]>[E,E][E,E] [E,B,E]2 [E,G,B,] | [B,,G,B,] [B,,F,B,]2- [B,,F,B,]2 [B,,G,B,] | %3
 [B,,B,]2 [B,,B,] [B,,B,]2 [B,,B,] |[M:5/8] [E,B,]-[E,B,]- [E,B,]3 |[M:1/8] [E,B,] | %6
[M:3/4] [E,E]>[E,E] [E,E] [E,B,E]2 [E,G,B,] | [B,,G,B,][B,,F,B,]- [B,,F,B,]3 B,, | %8
 F,2 .F,2 B,[F,=A,] |[M:5/8] [B,,B,]-[B,,B,]- [B,,B,]3 |[M:1/8] [B,A] | %11
[M:3/4] [E,B,]2 [E,E] [E,B,]2 [E,E] | [E,E]3 [E,E]2 E, | B,,2 B,, [B,,B,]2 [B,,B,] | %14
[M:5/8] [E,B,]-[E,B,]- [E,B,]3 |[M:1/8] [E,E] |[M:3/4] [E,B,]2 [E,E] [E,B,]2 [E,E] | %17
[M:7/8][K:treble] [A,EA]3 [A,CA]3 [A,EA] |[M:3/4][K:bass] E,2 E, B,,2 B,, |[M:5/8] E,-E,- E,3 |] %20
V:3
 x6 | x6 | x6 | x6 |[M:5/8] x5 |[M:1/8] x |[M:3/4] x6 | x6 | z2 z .F,3 |[M:5/8] x5 |[M:1/8] x | %11
[M:3/4] x6 | x6 | x6 |[M:5/8] x5 |[M:1/8] x |[M:3/4] x6 |[M:7/8][K:treble] x7 |[M:3/4][K:bass] x6 | %19
[M:5/8] x5 |] %20

